X: 29624
T: North Star, The
R: hornpipe
M: 4/4
K: Gmajor
|:D2|GdBG dGBG|cGeG dGBG|DGBG cABG|FAGE D2 EF|
GdBG dGBG|cGeG dGBG|Fedc BAGF|G2 B2 G2:|
|:d2|d2 Bd AdBd|g2 gd cBAG|BDGB cEAG|FdAd D2 EF|
GBdB Acec|Bdef gfge|edcB cDEF|G2 B2 G2:|

